src/pos-icons/stretch-to-page-outline.svg

<svg height="24" viewBox="0 0 24 24" width="24" xmlns="http://www.w3.org/2000/svg"><path d="m20 2h-16c-1.11 0-2 .89-2 2v16c0 1.11.89 2 2 2h16c1.11 0 2-.89 2-2v-16c0-1.11-.89-2-2-2m0 18h-16v-16h16m-11.17 6.25-1.54-1.54-1.29 1.29v-4h4l-1.29 1.29 1.54 1.54m3.5 0 1.54-1.54-1.29-1.29h4v4l-1.29-1.29-1.54 1.54m0 3.5 1.54 1.54 1.29-1.29v4h-4l1.29-1.29-1.54-1.54m-3.5 0-1.54 1.54 1.29 1.29h-4v-4l1.29 1.29 1.54-1.54"/></svg>

<?xml version="1.0" encoding="UTF-8"?><!DOCTYPE svg PUBLIC "-//W3C//DTD SVG 1.1//EN" "http://www.w3.org/Graphics/SVG/1.1/DTD/svg11.dtd"><svg xmlns="http://www.w3.org/2000/svg" xmlns:xlink="http://www.w3.org/1999/xlink" version="1.1" id="mdi-stretch-to-page-outline" width="24" height="24" viewBox="0 0 24 24"><path d="M20,2H4C2.89,2 2,2.89 2,4V20C2,21.11 2.89,22 4,22H20C21.11,22 22,21.11 22,20V4C22,2.89 21.11,2 20,2M20,20H4V4H20M8.83,10.25L7.29,8.71L6,10V6H10L8.71,7.29L10.25,8.83M13.75,8.83L15.29,7.29L14,6H18V10L16.71,8.71L15.17,10.25M15.17,13.75L16.71,15.29L18,14V18H14L15.29,16.71L13.75,15.17M10.25,15.17L8.71,16.71L10,18H6V14L7.29,15.29L8.83,13.75" /></svg>
